SVG_Azure_All/Azure Arc Virtual Machine.svg

<?xml version="1.0" encoding="UTF-8" standalone="no"?>
<!-- Generated by Microsoft Visio, SVG Export Azure Arc Virtual Machine.svg Page-1 -->

<svg
   xmlns:dc="http://purl.org/dc/elements/1.1/"
   xmlns:cc="http://creativecommons.org/ns#"
   xmlns:rdf="http://www.w3.org/1999/02/22-rdf-syntax-ns#"
   xmlns:svg="http://www.w3.org/2000/svg"
   xmlns="http://www.w3.org/2000/svg"
   xmlns:sodipodi="http://sodipodi.sourceforge.net/DTD/sodipodi-0.dtd"
   xmlns:inkscape="http://www.inkscape.org/namespaces/inkscape"
   width="0.66932291in"
   height="0.78739971in"
   viewBox="0 0 48.191134 56.69309"
   xml:space="preserve"
   class="st8"
   version="1.1"
   id="svg73"
   sodipodi:docname="Azure Arc Virtual Machine.svg"
   style="font-size:12px;overflow:visible;color-interpolation-filters:sRGB;fill:none;fill-rule:evenodd;stroke-linecap:square;stroke-miterlimit:3"
   inkscape:version="0.92.5 (2060ec1f9f, 2020-04-08)"><metadata
   id="metadata77"><rdf:RDF><cc:Work
       rdf:about=""><dc:format>image/svg+xml</dc:format><dc:type
         rdf:resource="http://purl.org/dc/dcmitype/StillImage" /></cc:Work></rdf:RDF></metadata><sodipodi:namedview
   pagecolor="#ffffff"
   bordercolor="#666666"
   borderopacity="1"
   objecttolerance="10"
   gridtolerance="10"
   guidetolerance="10"
   inkscape:pageopacity="0"
   inkscape:pageshadow="2"
   inkscape:window-width="640"
   inkscape:window-height="480"
   id="namedview75"
   showgrid="false"
   inkscape:zoom="1.4193119"
   inkscape:cx="32.125824"
   inkscape:cy="37.78591"
   inkscape:window-x="0"
   inkscape:window-y="0"
   inkscape:window-maximized="0"
   inkscape:current-layer="svg73" />
	<style
   type="text/css"
   id="style2">
	<![CDATA[
		.st1 {fill:#699bd2;stroke:none;stroke-linecap:butt;stroke-width:34}
		.st2 {fill:#75ceea;stroke:none;stroke-linecap:butt;stroke-width:34}
		.st3 {fill:url(#grad0-10);stroke:none;stroke-linecap:butt;stroke-width:34}
		.st4 {fill:url(#grad0-14);stroke:none;stroke-linecap:butt;stroke-width:34}
		.st5 {fill:#ffffff;fill-opacity:0.8;stroke:none;stroke-linecap:butt;stroke-width:34}
		.st6 {fill:#ffffff;fill-opacity:0.64;stroke:none;stroke-linecap:butt;stroke-width:34}
		.st7 {fill:#ffffff;fill-opacity:0.48;stroke:none;stroke-linecap:butt;stroke-width:34}
		.st8 {fill:none;fill-rule:evenodd;font-size:12px;overflow:visible;stroke-linecap:square;stroke-miterlimit:3}
	]]>
	</style>

	<defs
   id="Patterns_And_Gradients">
		<linearGradient
   id="grad0-10"
   x1="-8.2360955e-08"
   y1="112.96177"
   x2="39.252843"
   y2="112.96177"
   gradientTransform="scale(1.2205485,0.81930375)"
   gradientUnits="userSpaceOnUse">
			<stop
   offset="0"
   stop-color="#552f99"
   stop-opacity="1"
   id="stop4" />
			<stop
   offset="1"
   stop-color="#773adc"
   stop-opacity="1"
   id="stop6" />
		</linearGradient>
		<linearGradient
   id="grad0-14"
   x1="-4.6929379e-05"
   y1="156.00831"
   x2="17.240052"
   y2="156.00831"
   gradientTransform="scale(1.3892103,0.71983344)"
   gradientUnits="userSpaceOnUse">
			<stop
   offset="0.15"
   stop-color="#cbcbca"
   stop-opacity="1"
   id="stop9" />
			<stop
   offset="1"
   stop-color="#707171"
   stop-opacity="1"
   id="stop11" />
		</linearGradient>
	</defs>
	<g
   id="g71"
   transform="translate(-34.000457,-34.000999)">
		<title
   id="title15">Page-1</title>
		<g
   id="group8523-1"
   transform="translate(34,-34.0157)">
			<title
   id="title17">Azure Arc Virtual Machine</title>
			<g
   id="group8524-2">
				<title
   id="title19">Sheet.8524</title>
				<g
   id="shape8525-3"
   transform="translate(0.403504)">
					<title
   id="title21">Sheet.8525</title>
					<path
   d="m 47.56,116.86 c -0.44,1.96 -2.87,3.89 -7.26,5.4 A 59.9312,60.3445 0 0 1 6.63,122.3 c -4.03,-1.43 -6.22,-3.26 -6.57,-5.15 -0.06,-0.33 0,-5.5 0,-5.5 l 47.57,-0.44 c 0,0 -0.03,5.42 -0.07,5.65 z"
   class="st1"
   id="path23"
   inkscape:connector-curvature="0"
   style="fill:#699bd2;stroke:none;stroke-width:34;stroke-linecap:butt" />
				</g>
				<g
   id="shape8526-5"
   transform="translate(0,-4.58433)">
					<title
   id="title26">Sheet.8526</title>
					<ellipse
   cx="23.8067"
   cy="116.422"
   rx="23.8067"
   ry="8.2863503"
   class="st2"
   id="ellipse28"
   style="fill:#75ceea;stroke:none;stroke-width:34;stroke-linecap:butt" />
				</g>
				<g
   id="shape8527-7"
   transform="translate(0.281514,-24.5333)">
					<title
   id="title31">Sheet.8527</title>
					<path
   d="m 0,123.1 a 1.59841,1.60943 -180 0 0 1.6,1.61 h 44.71 a 1.59841,1.60943 -180 0 0 1.6,-1.61 V 94.16 a 1.59841,1.60943 -180 0 0 -1.6,-1.61 H 1.6 A 1.59841,1.60943 -180 0 0 0,94.16 Z"
   class="st3"
   id="path33"
   inkscape:connector-curvature="0"
   style="fill:url(#grad0-10);stroke:none;stroke-width:34;stroke-linecap:butt" />
				</g>
				<g
   id="shape8528-11"
   transform="translate(12.2709,-12.1274)">
					<title
   id="title36">Sheet.8528</title>
					<path
   d="m 21.57,122.03 c -4.74,-0.75 -4.92,-4.18 -4.92,-9.73 H 7.27 c 0,5.55 -0.16,8.98 -4.9,9.73 A 2.65875,2.67708 -180 0 0 0,124.71 h 23.95 a 2.65875,2.67708 -180 0 0 -2.38,-2.68 z"
   class="st4"
   id="path38"
   inkscape:connector-curvature="0"
   style="fill:url(#grad0-14);stroke:none;stroke-width:34;stroke-linecap:butt" />
				</g>
				<g
   id="group8529-15"
   transform="translate(16.2465,-31.2071)">
					<title
   id="title41">Sheet.8529</title>
					<g
   id="shape8530-16"
   transform="translate(0.00625587,-9.35718)">
						<title
   id="title43">Sheet.8530</title>
						<path
   d="m 15.97,120.01 -7.98,4.7 -7.99,-4.7 7.99,-4.7 z"
   class="st5"
   id="path45"
   inkscape:connector-curvature="0"
   style="fill:#ffffff;fill-opacity:0.8;stroke:none;stroke-width:34;stroke-linecap:butt" />
					</g>
					<g
   id="shape8531-18"
   transform="translate(0.00625587,-4.70221)">
						<title
   id="title48">Sheet.8531</title>
						<path
   d="m 0,115.35 v 9.36 l 7.97,-4.66 z"
   class="st6"
   id="path50"
   inkscape:connector-curvature="0"
   style="fill:#ffffff;fill-opacity:0.63999999;stroke:none;stroke-width:34;stroke-linecap:butt" />
					</g>
					<g
   id="shape8532-20"
   transform="translate(0,-0.00314951)">
						<title
   id="title53">Sheet.8532</title>
						<path
   d="m 0,120.01 7.99,4.7 v -9.36 H 7.98 Z"
   class="st5"
   id="path55"
   inkscape:connector-curvature="0"
   style="fill:#ffffff;fill-opacity:0.8;stroke:none;stroke-width:34;stroke-linecap:butt" />
					</g>
					<g
   id="shape8533-22"
   transform="translate(7.99188,-4.70221)">
						<title
   id="title58">Sheet.8533</title>
						<path
   d="m 0,120.04 7.99,4.67 v -9.36 z"
   class="st7"
   id="path60"
   inkscape:connector-curvature="0"
   style="fill:#ffffff;fill-opacity:0.47999998;stroke:none;stroke-width:34;stroke-linecap:butt" />
					</g>
					<g
   id="shape8534-24"
   transform="translate(7.99188)">
						<title
   id="title63">Sheet.8534</title>
						<path
   d="M 0,124.71 7.99,120.01 0,115.34 Z"
   class="st6"
   id="path65"
   inkscape:connector-curvature="0"
   style="fill:#ffffff;fill-opacity:0.63999999;stroke:none;stroke-width:34;stroke-linecap:butt" />
					</g>
				</g>
			</g>
		</g>
	</g>
</svg>

<?xml version="1.0" encoding="UTF-8" standalone="no"?>
<!DOCTYPE svg PUBLIC "-//W3C//DTD SVG 1.1//EN" "http://www.w3.org/Graphics/SVG/1.1/DTD/svg11.dtd">
<!-- Generated by Microsoft Visio, SVG Export Azure Arc Virtual Machine.svg Page-1 -->
<svg xmlns="http://www.w3.org/2000/svg" xmlns:xlink="http://www.w3.org/1999/xlink" xmlns:ev="http://www.w3.org/2001/xml-events"
		width="1.61374in" height="1.73206in" viewBox="0 0 116.189 124.709" xml:space="preserve" color-interpolation-filters="sRGB"
		class="st8">
	<style type="text/css">
	<![CDATA[
		.st1 {fill:#699bd2;stroke:none;stroke-linecap:butt;stroke-width:34}
		.st2 {fill:#75ceea;stroke:none;stroke-linecap:butt;stroke-width:34}
		.st3 {fill:url(#grad0-10);stroke:none;stroke-linecap:butt;stroke-width:34}
		.st4 {fill:url(#grad0-14);stroke:none;stroke-linecap:butt;stroke-width:34}
		.st5 {fill:#ffffff;fill-opacity:0.8;stroke:none;stroke-linecap:butt;stroke-width:34}
		.st6 {fill:#ffffff;fill-opacity:0.64;stroke:none;stroke-linecap:butt;stroke-width:34}
		.st7 {fill:#ffffff;fill-opacity:0.48;stroke:none;stroke-linecap:butt;stroke-width:34}
		.st8 {fill:none;fill-rule:evenodd;font-size:12px;overflow:visible;stroke-linecap:square;stroke-miterlimit:3}
	]]>
	</style>

	<defs id="Patterns_And_Gradients">
		<linearGradient id="grad0-10" x1="0" y1="0" x2="1" y2="0" gradientTransform="rotate(-90 0.5 0.5)">
			<stop offset="0" stop-color="#552f99" stop-opacity="1"/>
			<stop offset="1" stop-color="#773adc" stop-opacity="1"/>
		</linearGradient>
		<linearGradient id="grad0-14" x1="0" y1="0" x2="1" y2="0" gradientTransform="rotate(-90 0.5 0.5)">
			<stop offset="0.15" stop-color="#cbcbca" stop-opacity="1"/>
			<stop offset="1" stop-color="#707171" stop-opacity="1"/>
		</linearGradient>
	</defs>
	<g>
		<title>Page-1</title>
		<g id="group8328-1" transform="translate(34,-34.0157)">
			<title>Azure Arc Virtual Machine</title>
			<g id="group8329-2">
				<title>Sheet.8329</title>
				<g id="shape8330-3" transform="translate(0.403504,2.98428E-13)">
					<title>Sheet.8330</title>
					<path d="M47.56 116.86 C47.12 118.82 44.69 120.75 40.3 122.26 A59.9312 60.3445 0 0 1 6.63 122.3 C2.6 120.87 0.41
								 119.04 0.06 117.15 C0 116.82 0.06 111.65 0.06 111.65 L47.63 111.21 C47.63 111.21 47.6 116.63 47.56
								 116.86 Z" class="st1"/>
				</g>
				<g id="shape8331-5" transform="translate(0,-4.58433)">
					<title>Sheet.8331</title>
					<ellipse cx="23.8067" cy="116.422" rx="23.8067" ry="8.28635" class="st2"/>
				</g>
				<g id="shape8332-7" transform="translate(0.281514,-24.5333)">
					<title>Sheet.8332</title>
					<path d="M0 123.1 A1.59841 1.60943 -180 0 0 1.6 124.71 L46.31 124.71 A1.59841 1.60943 -180 0 0 47.91 123.1 L47.91
								 94.16 A1.59841 1.60943 -180 0 0 46.31 92.55 L1.6 92.55 A1.59841 1.60943 -180 0 0 -0 94.16 L0 123.1
								 Z" class="st3"/>
				</g>
				<g id="shape8333-11" transform="translate(12.2709,-12.1274)">
					<title>Sheet.8333</title>
					<path d="M21.57 122.03 C16.83 121.28 16.65 117.85 16.65 112.3 L7.27 112.3 C7.27 117.85 7.11 121.28 2.37 122.03
								 A2.65875 2.67708 -180 0 0 0 124.71 L23.95 124.71 A2.65875 2.67708 -180 0 0 21.57 122.03 Z"
							class="st4"/>
				</g>
				<g id="group8334-15" transform="translate(16.2465,-31.2071)">
					<title>Sheet.8334</title>
					<g id="shape8335-16" transform="translate(0.00625587,-9.35718)">
						<title>Sheet.8335</title>
						<path d="M15.97 120.01 L7.99 124.71 L0 120.01 L7.99 115.31 L15.97 120.01 Z" class="st5"/>
					</g>
					<g id="shape8336-18" transform="translate(0.00625587,-4.70221)">
						<title>Sheet.8336</title>
						<path d="M0 115.35 L0 124.71 L7.97 120.05 L0 115.35 Z" class="st6"/>
					</g>
					<g id="shape8337-20" transform="translate(0,-0.00314951)">
						<title>Sheet.8337</title>
						<path d="M0 120.01 L7.99 124.71 L7.99 115.35 L7.98 115.35 L0 120.01 Z" class="st5"/>
					</g>
					<g id="shape8338-22" transform="translate(7.99188,-4.70221)">
						<title>Sheet.8338</title>
						<path d="M0 120.04 L7.99 124.71 L7.99 115.35 L0 120.04 Z" class="st7"/>
					</g>
					<g id="shape8339-24" transform="translate(7.99188,1.42109E-14)">
						<title>Sheet.8339</title>
						<path d="M0 124.71 L7.99 120.01 L0 115.34 L0 124.71 Z" class="st6"/>
					</g>
				</g>
			</g>
		</g>
	</g>
</svg>
